**kern	**silbe	**kern	**silbe	**kern	**silbe	**kern	**silbe	**harmony	**phrase	**leadinstrument	**rhyme	**timestamp	**harte
*ICvox	*	*ICvox	*	*ICvox	*	*ICvox	*	*M4/4	*	*	*	*	*M4/4
*VRlead	*	*VRharmonize*VRresponse	*	*VRharmonize*VRresponse	*	*VRharmonize	*	*	*	*	*	*	*
*Hstimme	*	*Nstimme	*	*Nstimme	*	*Nstimme	*	*	*	*	*	*	*
*G:	*	*G:	*	*G:	*	*G:	*	*G:	*G:	*G:	*	*G:	*G:
*M4/4	*	*M4/4	*	*M4/4	*	*M4/4	*	*	*	*	*	*	*
*clefF4	*	*clefG2	*	*clefG2	*	*clefG2	*	*	*	*	*	*	*
r;	.	r;	.	r;	.	r;	.	1r;	.	r	.	0	N.C.
=1	=1	=1	=1	=1	=1	=1	=1	=1	=1	=1	=1	=1	=1
*>Letter>A	*>Letter>A	*>Letter>A	*>Letter>A	*>Letter>A	*>Letter>A	*>Letter>A	*>Letter>A	*>Letter>A	*>Letter>A	*>Letter>A	*>Letter>A	*>Letter>A	*>Letter>A
*>Label>Intro	*>Label>Intro	*>Label>Intro	*>Label>Intro	*>Label>Intro	*>Label>Intro	*>Label>Intro	*>Label>Intro	*>Label>Intro	*>Label>Intro	*>Label>Intro	*>Label>Intro	*>Label>Intro	*>Label>Intro
1r	.	1r	.	1r	.	1r	.	2GM	newline	guitar	.	0.418	G:maj
.	.	.	.	.	.	.	.	2GM	.	guitar	.	2.055	G:maj(9)
=2	=2	=2	=2	=2	=2	=2	=2	=2	=2	=2	=2	=2	=2
1r	.	1r	.	1r	.	1r	.	2GM	.	guitar	.	3.692	G:maj
.	.	.	.	.	.	.	.	2GM	.	guitar	.	5.33	G:maj(9)
=3	=3	=3	=3	=3	=3	=3	=3	=3	=3	=3	=3	=3	=3
1r	.	1r	.	1r	.	1r	.	2Emm	.	guitar	.	6.967	E:min9
.	.	.	.	.	.	.	.	2Emm	.	guitar	.	8.604	E:min7
=4	=4	=4	=4	=4	=4	=4	=4	=4	=4	=4	=4	=4	=4
1r	.	1r	.	1r	.	1r	.	2Emm	.	guitar	.	10.241	E:min9
.	.	.	.	.	.	.	.	2Emm	.	guitar	.	11.879	E:min7
=5	=5	=5	=5	=5	=5	=5	=5	=5	=5	=5	=5	=5	=5
*>Letter>B	*>Letter>B	*>Letter>B	*>Letter>B	*>Letter>B	*>Letter>B	*>Letter>B	*>Letter>B	*>Letter>B	*>Letter>B	*>Letter>B	*>Letter>B	*>Letter>B	*>Letter>B
*>Label>Verse	*>Label>Verse	*>Label>Verse	*>Label>Verse	*>Label>Verse	*>Label>Verse	*>Label>Verse	*>Label>Verse	*>Label>Verse	*>Label>Verse	*>Label>Verse	*>Label>Verse	*>Label>Verse	*>Label>Verse
4r	.	1r	.	1r	.	1r	.	2GM	newline	voice	.	13.516	G:maj
8DD	Hush	.	.	.	.	.	.	.	.	.	.	.	.
8D	now	.	.	.	.	.	.	.	.	.	.	.	.
8D	don't	.	.	.	.	.	.	2GM	.	voice	.	15.226	G:maj(9)
16BB	you	.	.	.	.	.	.	.	.	.	.	.	.
8D	cry	.	.	.	.	.	.	.	.	.	A	.	.
8.BB	_	.	.	.	.	.	.	.	.	.	.	.	.
=6	=6	=6	=6	=6	=6	=6	=6	=6	=6	=6	=6	=6	=6
2r	.	1r	.	1r	.	1r	.	2GM	.	voice	.	16.937	G:maj
8D	Wipe	.	.	.	.	.	.	2GM	.	voice	.	18.648	G:maj(9)
16D	a-	.	.	.	.	.	.	.	.	.	.	.	.
8.D	-way	.	.	.	.	.	.	.	.	.	.	.	.
16E	the	.	.	.	.	.	.	.	.	.	.	.	.
[16BB	tear	.	.	.	.	.	.	.	.	.	B	.	.
=7	=7	=7	=7	=7	=7	=7	=7	=7	=7	=7	=7	=7	=7
8BB]	_	1r	.	1r	.	1r	.	2Emm	.	voice	.	20.358	E:min9
8BB	drop	.	.	.	.	.	.	.	.	.	.	.	.
8BB	from	.	.	.	.	.	.	.	.	.	.	.	.
16AA	your	.	.	.	.	.	.	.	.	.	.	.	.
[16GG	eye	.	.	.	.	.	.	.	.	.	A	.	.
8GG]	_	.	.	.	.	.	.	2Emm	.	voice	.	22.069	E:min7
8r	.	.	.	.	.	.	.	.	.	.	.	.	.
4r	.	.	.	.	.	.	.	.	.	.	.	.	.
=8	=8	=8	=8	=8	=8	=8	=8	=8	=8	=8	=8	=8	=8
1r	.	1r	.	1r	.	1r	.	2Emm	.	voice	.	23.78	E:min9
.	.	.	.	.	.	.	.	2Emm	.	voice	.	25.49	E:min7
=9	=9	=9	=9	=9	=9	=9	=9	=9	=9	=9	=9	=9	=9
8.r	.	1r	.	1r	.	1r	.	2GM	newline	voice	.	27.201	G:maj
16DD	You're	.	.	.	.	.	.	.	.	.	.	.	.
8D	ly-	.	.	.	.	.	.	.	.	.	.	.	.
8D	-in'	.	.	.	.	.	.	.	.	.	.	.	.
16D	safe	.	.	.	.	.	.	2GM	.	voice	.	28.863	G:maj(9)
16BB	_	.	.	.	.	.	.	.	.	.	.	.	.
16BB	in	.	.	.	.	.	.	.	.	.	.	.	.
8D	bed	.	.	.	.	.	.	.	.	.	C	.	.
8.E	_	.	.	.	.	.	.	.	.	.	.	.	.
=10	=10	=10	=10	=10	=10	=10	=10	=10	=10	=10	=10	=10	=10
4.r	.	1r	.	1r	.	1r	.	2GM	.	voice	.	30.524	G:maj
16DD	It	.	.	.	.	.	.	.	.	.	.	.	.
16DD	was	.	.	.	.	.	.	.	.	.	.	.	.
8D	all	.	.	.	.	.	.	2GM	.	voice	.	32.186	G:maj(9)
16D	a	.	.	.	.	.	.	.	.	.	.	.	.
8.D	bad	.	.	.	.	.	.	.	.	.	.	.	.
8E	dream	.	.	.	.	.	.	.	.	.	.	.	.
=11	=11	=11	=11	=11	=11	=11	=11	=11	=11	=11	=11	=11	=11
16BB	spin-	1r	.	1r	.	1r	.	2Emm	.	voice	.	33.847	E:min9
8.BB	-ning	.	.	.	.	.	.	.	.	.	.	.	.
16r	.	.	.	.	.	.	.	.	.	.	.	.	.
16~BB	in	.	.	.	.	.	.	.	.	.	.	.	.
16~FF#	your	.	.	.	.	.	.	.	.	.	.	.	.
16~GG	head	.	.	.	.	.	.	.	.	.	C	.	.
4r	.	.	.	.	.	.	.	2Emm	.	voice	.	35.509	E:min7
4r	.	.	.	.	.	.	.	.	.	.	.	.	.
=12	=12	=12	=12	=12	=12	=12	=12	=12	=12	=12	=12	=12	=12
1r	.	1r	.	1r	.	1r	.	2Emm	.	voice	.	37.171	E:min9
.	.	.	.	.	.	.	.	2Emm	.	voice	.	38.832	E:min7
=13	=13	=13	=13	=13	=13	=13	=13	=13	=13	=13	=13	=13	=13
8.r	.	1r	.	1r	.	1r	.	2CM	newline	voice	.	40.494	C:maj
16EE	Your	.	.	.	.	.	.	.	.	.	.	.	.
8E	mind	.	.	.	.	.	.	.	.	.	.	.	.
8E	tricked	.	.	.	.	.	.	.	.	.	.	.	.
16E	you	.	.	.	.	.	.	2CM	.	voice	.	42.207	C:maj(9)
16D	_	.	.	.	.	.	.	.	.	.	.	.	.
16D	to	.	.	.	.	.	.	.	.	.	.	.	.
8.E	feel	.	.	.	.	.	.	.	.	.	.	.	.
16F#	the	.	.	.	.	.	.	.	.	.	.	.	.
[16E	pain	.	.	.	.	.	.	.	.	.	D	.	.
=14	=14	=14	=14	=14	=14	=14	=14	=14	=14	=14	=14	=14	=14
8E]	_	1r	.	1r	.	1r	.	2CM	.	voice	.	43.92	C:maj
8r	.	.	.	.	.	.	.	.	.	.	.	.	.
8r	.	.	.	.	.	.	.	.	.	.	.	.	.
16r	.	.	.	.	.	.	.	.	.	.	.	.	.
16~GG	of	.	.	.	.	.	.	.	.	.	.	.	.
8E	some-	.	.	.	.	.	.	2CM	.	voice	.	45.633	C:maj(9)
8E	-one	.	.	.	.	.	.	.	.	.	.	.	.
16E	close	.	.	.	.	.	.	.	.	.	.	.	.
16C	_	.	.	.	.	.	.	.	.	.	.	.	.
16C	to	.	.	.	.	.	.	.	.	.	.	.	.
[16C	you	.	.	.	.	.	.	.	.	.	.	.	.
=15	=15	=15	=15	=15	=15	=15	=15	=15	=15	=15	=15	=15	=15
8C]	_	1r	.	1r	.	1r	.	2Amm	.	voice	.	47.347	A:min7
16C	leav-	.	.	.	.	.	.	.	.	.	.	.	.
8.C	-ing	.	.	.	.	.	.	.	.	.	.	.	.
16D	the	.	.	.	.	.	.	.	.	.	.	.	.
[16AA	game	.	.	.	.	.	.	.	.	.	D	.	.
4AA]	_	.	.	.	.	.	.	2Amm	.	voice	.	49.06	A:min11
8.r	.	.	.	.	.	.	.	.	.	.	.	.	.
16~GG	of	.	.	.	.	.	.	.	.	.	.	.	.
=16	=16	=16	=16	=16	=16	=16	=16	=16	=16	=16	=16	=16	=16
8~AA	life	1r	.	1r	.	1r	.	2Amm	.	voice	.	50.773	A:min7
8r	.	.	.	.	.	.	.	.	.	.	.	.	.
4r	.	.	.	.	.	.	.	.	.	.	.	.	.
2r	.	.	.	.	.	.	.	2Amm	.	voice	.	52.486	A:min11
=17	=17	=17	=17	=17	=17	=17	=17	=17	=17	=17	=17	=17	=17
8.r	.	1r	.	1r	.	1r	.	2CM	newline	voice	.	54.199	C:maj
16EE	So	.	.	.	.	.	.	.	.	.	.	.	.
8E	here	.	.	.	.	.	.	.	.	.	.	.	.
16D	it	.	.	.	.	.	.	.	.	.	.	.	.
8.E	is	.	.	.	.	.	.	.	.	.	.	.	.
.	.	.	.	.	.	.	.	2CM	.	voice	.	56.013	C:maj(9)
16r	.	.	.	.	.	.	.	.	.	.	.	.	.
16D	A-	.	.	.	.	.	.	.	.	.	.	.	.
8E	-noth-	.	.	.	.	.	.	.	.	.	.	.	.
16F#	-er	.	.	.	.	.	.	.	.	.	.	.	.
[16E	chance	.	.	.	.	.	.	.	.	.	.	.	.
=18	=18	=18	=18	=18	=18	=18	=18	=18	=18	=18	=18	=18	=18
8E]	_	1r	.	1r	.	1r	.	2CM	.	voice	.	57.826	C:maj
8r	.	.	.	.	.	.	.	.	.	.	.	.	.
4r	.	.	.	.	.	.	.	.	.	.	.	.	.
8E	Wide	.	.	.	.	.	.	2CM	.	voice	.	59.639	C:maj(9)
16E	a-	.	.	.	.	.	.	.	.	.	.	.	.
8E	-wake	.	.	.	.	.	.	.	.	.	.	.	.
16r	.	.	.	.	.	.	.	.	.	.	.	.	.
16G	you	.	.	.	.	.	.	.	.	.	.	.	.
16G	face	.	.	.	.	.	.	.	.	.	.	.	.
=19	=19	=19	=19	=19	=19	=19	=19	=19	=19	=19	=19	=19	=19
8A	_	1r	.	1r	.	1r	.	2Amm	.	voice	.	61.452	A:min7
16A	the	.	.	.	.	.	.	.	.	.	.	.	.
8.A	day	.	.	.	.	.	.	.	.	.	.	.	.
16r	.	.	.	.	.	.	.	.	.	.	.	.	.
16C	The	.	.	.	.	.	.	.	.	.	.	.	.
8E	dream	.	.	.	.	.	.	2Amm	.	voice	.	63.265	A:min11
8F	is	.	.	.	.	.	.	.	.	.	.	.	.
8E	o-	.	.	.	.	.	.	.	.	.	.	.	.
8F	-ver	.	.	.	.	.	.	.	.	.	.	.	.
=20	=20	=20	=20	=20	=20	=20	=20	=20	=20	=20	=20	=20	=20
4r	.	1r	.	1r	.	1r	.	1GM	.	voice	.	65.078	G:5
8.r	.	.	.	.	.	.	.	.	.	.	.	.	.
16~DD	Or	.	.	.	.	.	.	.	.	.	.	.	.
16~GG	has	.	.	.	.	.	.	.	.	.	.	.	.
8~GG	it	.	.	.	.	.	.	.	.	.	.	.	.
16~GG	just	.	.	.	.	.	.	.	.	.	.	.	.
8r	.	.	.	.	.	.	.	.	.	.	.	.	.
16~BB	be-	.	.	.	.	.	.	.	.	.	.	.	.
16~D	-gun?	.	.	.	.	.	.	.	.	.	.	.	.
=21	=21	=21	=21	=21	=21	=21	=21	=21	=21	=21	=21	=21	=21
*>Letter>A	*>Letter>A	*>Letter>A	*>Letter>A	*>Letter>A	*>Letter>A	*>Letter>A	*>Letter>A	*>Letter>A	*>Letter>A	*>Letter>A	*>Letter>A	*>Letter>A	*>Letter>A
*>Label>Trans	*>Label>Trans	*>Label>Trans	*>Label>Trans	*>Label>Trans	*>Label>Trans	*>Label>Trans	*>Label>Trans	*>Label>Trans	*>Label>Trans	*>Label>Trans	*>Label>Trans	*>Label>Trans	*>Label>Trans
1r	.	1r	.	1r	.	1r	.	2GM	newline	guitar	.	68.705	G:maj
.	.	.	.	.	.	.	.	2GM	.	guitar	.	70.419	G:maj(9)
=22	=22	=22	=22	=22	=22	=22	=22	=22	=22	=22	=22	=22	=22
1r	.	1r	.	1r	.	1r	.	2GM	.	guitar	.	72.134	G:maj
.	.	.	.	.	.	.	.	2GM	.	guitar	.	73.848	G:maj(9)
=23	=23	=23	=23	=23	=23	=23	=23	=23	=23	=23	=23	=23	=23
1r	.	1r	.	1r	.	1r	.	2Emm	.	guitar	.	75.562	E:min9
.	.	.	.	.	.	.	.	2Emm	.	guitar	.	77.277	E:min7
=24	=24	=24	=24	=24	=24	=24	=24	=24	=24	=24	=24	=24	=24
1r	.	1r	.	1r	.	1r	.	2Emm	.	guitar	.	78.991	E:min9
.	.	.	.	.	.	.	.	2Emm	.	guitar	.	80.706	E:min7
=25	=25	=25	=25	=25	=25	=25	=25	=25	=25	=25	=25	=25	=25
*>Letter>B	*>Letter>B	*>Letter>B	*>Letter>B	*>Letter>B	*>Letter>B	*>Letter>B	*>Letter>B	*>Letter>B	*>Letter>B	*>Letter>B	*>Letter>B	*>Letter>B	*>Letter>B
*>Label>Verse	*>Label>Verse	*>Label>Verse	*>Label>Verse	*>Label>Verse	*>Label>Verse	*>Label>Verse	*>Label>Verse	*>Label>Verse	*>Label>Verse	*>Label>Verse	*>Label>Verse	*>Label>Verse	*>Label>Verse
4.r	.	1r	.	1r	.	1r	.	2GM	newline	voice	.	82.42	G:maj
16B	There's	.	.	.	.	.	.	.	.	.	.	.	.
16d	a	.	.	.	.	.	.	.	.	.	.	.	.
8d	place	.	.	.	.	.	.	2GM	.	voice	.	84.138	G:maj(9)
8B	I	.	.	.	.	.	.	.	.	.	.	.	.
8d	like	.	.	.	.	.	.	.	.	.	.	.	.
16e	to	.	.	.	.	.	.	.	.	.	.	.	.
16d	hide	.	.	.	.	.	.	.	.	.	A	.	.
=26	=26	=26	=26	=26	=26	=26	=26	=26	=26	=26	=26	=26	=26
8B	_	1r	.	1r	.	1r	.	2GM	.	voice	.	85.856	G:maj
8r	.	.	.	.	.	.	.	.	.	.	.	.	.
8.r	.	.	.	.	.	.	.	.	.	.	.	.	.
16~G	A	.	.	.	.	.	.	.	.	.	.	.	.
8d	door	.	.	.	.	.	.	2GM	.	voice	.	87.574	G:maj(9)
8d	way	.	.	.	.	.	.	.	.	.	.	.	.
16d	that	.	.	.	.	.	.	.	.	.	.	.	.
16d	I	.	.	.	.	.	.	.	.	.	.	.	.
8e	_	.	.	.	.	.	.	.	.	.	.	.	.
=27	=27	=27	=27	=27	=27	=27	=27	=27	=27	=27	=27	=27	=27
8B	run	1r	.	1r	.	1r	.	2Emm	.	voice	.	89.292	E:min9
[8B	through	.	.	.	.	.	.	.	.	.	.	.	.
16B]	_	.	.	.	.	.	.	.	.	.	.	.	.
16B	in	.	.	.	.	.	.	.	.	.	.	.	.
16A	the	.	.	.	.	.	.	.	.	.	.	.	.
[16G	night	.	.	.	.	.	.	.	.	.	A	.	.
4G]	_	.	.	.	.	.	.	2Emm	.	voice	.	91.009	E:min7
4r	.	.	.	.	.	.	.	.	.	.	.	.	.
=28	=28	=28	=28	=28	=28	=28	=28	=28	=28	=28	=28	=28	=28
1r	.	1r	.	1r	.	1r	.	2Emm	.	voice	.	92.727	E:min9
.	.	.	.	.	.	.	.	2Emm	.	voice	.	94.445	E:min7
=29	=29	=29	=29	=29	=29	=29	=29	=29	=29	=29	=29	=29	=29
8.r	.	1r	.	1r	.	1r	.	2GM	newline	voice	.	96.163	G:maj
16BB	Re-	.	.	.	.	.	.	.	.	.	.	.	.
8D	-lax	.	.	.	.	.	.	.	.	.	.	.	.
16d	child	.	.	.	.	.	.	.	.	.	.	.	.
16B	_	.	.	.	.	.	.	.	.	.	.	.	.
8d	you	.	.	.	.	.	.	2GM	.	voice	.	97.879	G:maj(9)
16B	were	.	.	.	.	.	.	.	.	.	.	.	.
8d	there	.	.	.	.	.	.	.	.	.	E	.	.
8.e	_	.	.	.	.	.	.	.	.	.	.	.	.
=30	=30	=30	=30	=30	=30	=30	=30	=30	=30	=30	=30	=30	=30
4r	.	1r	.	1r	.	1r	.	2GM	.	voice	.	99.594	G:maj
8.r	.	.	.	.	.	.	.	.	.	.	.	.	.
16~D	but	.	.	.	.	.	.	.	.	.	.	.	.
8d	on-	.	.	.	.	.	.	2GM	.	voice	.	101.31	G:maj(9)
8d	-ly	.	.	.	.	.	.	.	.	.	.	.	.
16d	did-	.	.	.	.	.	.	.	.	.	.	.	.
16d	-'nt	.	.	.	.	.	.	.	.	.	.	.	.
8e	_	.	.	.	.	.	.	.	.	.	.	.	.
=31	=31	=31	=31	=31	=31	=31	=31	=31	=31	=31	=31	=31	=31
16B	re-	1r	.	1r	.	1r	.	2Emm	.	voice	.	103.025	E:min9
16A	-a-	.	.	.	.	.	.	.	.	.	.	.	.
4B	-lize	.	.	.	.	.	.	.	.	.	.	.	.
16r	.	.	.	.	.	.	.	.	.	.	.	.	.
16A	and	.	.	.	.	.	.	.	.	.	.	.	.
16B	you	.	.	.	.	.	.	2Emm	.	voice	.	104.741	E:min7
8A	were	.	.	.	.	.	.	.	.	.	.	.	.
8.B	scared	.	.	.	.	.	.	.	.	.	E	.	.
8r	.	.	.	.	.	.	.	.	.	.	.	.	.
=32	=32	=32	=32	=32	=32	=32	=32	=32	=32	=32	=32	=32	=32
1r	.	1r	.	1r	.	1r	.	2Emm	.	voice	.	106.456	E:min9
.	.	.	.	.	.	.	.	2Emm	.	voice	.	108.172	E:min7
=33	=33	=33	=33	=33	=33	=33	=33	=33	=33	=33	=33	=33	=33
4.r	.	1r	.	1r	.	1r	.	2CM	newline	voice	.	109.887	C:maj
16c	It's	.	.	.	.	.	.	.	.	.	.	.	.
16c	a	.	.	.	.	.	.	.	.	.	.	.	.
8e	place	.	.	.	.	.	.	2CM	.	voice	.	111.602	C:maj(9)
8d	where	.	.	.	.	.	.	.	.	.	.	.	.
8e	you	.	.	.	.	.	.	.	.	.	.	.	.
16f#	will	.	.	.	.	.	.	.	.	.	.	.	.
[16e	learn	.	.	.	.	.	.	.	.	.	.	.	.
=34	=34	=34	=34	=34	=34	=34	=34	=34	=34	=34	=34	=34	=34
4e]	_	1r	.	1r	.	1r	.	2CM	.	voice	.	113.317	C:maj
8.r	.	.	.	.	.	.	.	.	.	.	.	.	.
16c	to	.	.	.	.	.	.	.	.	.	.	.	.
8e	face	.	.	.	.	.	.	2CM	.	voice	.	115.032	C:maj(9)
16d	your	.	.	.	.	.	.	.	.	.	.	.	.
16e	fears	.	.	.	.	.	.	.	.	.	B	.	.
8d	_	.	.	.	.	.	.	.	.	.	.	.	.
16r	.	.	.	.	.	.	.	.	.	.	.	.	.
16c	re-	.	.	.	.	.	.	.	.	.	.	.	.
=35	=35	=35	=35	=35	=35	=35	=35	=35	=35	=35	=35	=35	=35
8e	-trace	1r	.	1r	.	1r	.	2Amm	.	voice	.	116.748	A:min7
16d	the	.	.	.	.	.	.	.	.	.	.	.	.
16e	years	.	.	.	.	.	.	.	.	.	B	.	.
8d	_	.	.	.	.	.	.	.	.	.	.	.	.
16r	.	.	.	.	.	.	.	.	.	.	.	.	.
16G	and	.	.	.	.	.	.	.	.	.	.	.	.
8c	ride	.	.	.	.	.	.	2Amm	.	voice	.	118.463	A:min11
16c	the	.	.	.	.	.	.	.	.	.	.	.	.
8c	whims	.	.	.	.	.	.	.	.	.	.	.	.
16c	in	.	.	.	.	.	.	.	.	.	.	.	.
16d	your	.	.	.	.	.	.	.	.	.	.	.	.
[16A	mind	.	.	.	.	.	.	.	.	.	A	.	.
=36	=36	=36	=36	=36	=36	=36	=36	=36	=36	=36	=36	=36	=36
4A]	_	1r	.	1r	.	1r	.	2Amm	.	voice	.	120.178	A:min7
4r	.	.	.	.	.	.	.	.	.	.	.	.	.
2r	.	.	.	.	.	.	.	2Amm	.	voice	.	121.893	A:min11
=37	=37	=37	=37	=37	=37	=37	=37	=37	=37	=37	=37	=37	=37
8.r	.	1r	.	1r	.	1r	.	2CM	newline	voice	.	123.608	C:maj
16~G	Co-	.	.	.	.	.	.	.	.	.	.	.	.
8e	-mman-	.	.	.	.	.	.	.	.	.	.	.	.
8d	-ding	.	.	.	.	.	.	.	.	.	.	.	.
8e	in	.	.	.	.	.	.	2CM	.	voice	.	125.321	C:maj(9)
16d	a-	.	.	.	.	.	.	.	.	.	.	.	.
8.e	-no-	.	.	.	.	.	.	.	.	.	.	.	.
16f#	-ther	.	.	.	.	.	.	.	.	.	.	.	.
[16e	world	.	.	.	.	.	.	.	.	.	.	.	.
=38	=38	=38	=38	=38	=38	=38	=38	=38	=38	=38	=38	=38	=38
4e]	_	1r	.	1r	.	1r	.	2CM	.	voice	.	127.033	C:maj
4r	.	.	.	.	.	.	.	.	.	.	.	.	.
8g	Sud-	.	.	.	.	.	.	2CM	.	voice	.	128.746	C:maj(9)
16g	-den-	.	.	.	.	.	.	.	.	.	.	.	.
8.g	-ly	.	.	.	.	.	.	.	.	.	F	.	.
16r	.	.	.	.	.	.	.	.	.	.	.	.	.
16g	you	.	.	.	.	.	.	.	.	.	.	.	.
=39	=39	=39	=39	=39	=39	=39	=39	=39	=39	=39	=39	=39	=39
8a	hear	1r	.	1r	.	1r	.	2Amm	.	voice	B	130.459	A:min7
8a	and	.	.	.	.	.	.	.	.	.	.	.	.
8a	see	.	.	.	.	.	.	.	.	.	F	.	.
16r	.	.	.	.	.	.	.	.	.	.	.	.	.
16d	this	.	.	.	.	.	.	.	.	.	.	.	.
8e	ma-	.	.	.	.	.	.	2Amm	.	voice	.	132.171	A:min11
8e	-gic	.	.	.	.	.	.	.	.	.	.	.	.
8e	new	.	.	.	.	.	.	.	.	.	.	.	.
16f#	di-	.	.	.	.	.	.	.	.	.	.	.	.
[16e	-men-	.	.	.	.	.	.	.	.	.	.	.	.
=40	=40	=40	=40	=40	=40	=40	=40	=40	=40	=40	=40	=40	=40
8e]	_	1r	.	1r	.	1r	.	1Amm	.	voice	.	133.884	A:min7
8e	-sion	.	.	.	.	.	.	.	.	.	.	.	.
4r	.	.	.	.	.	.	.	.	.	.	.	.	.
2r	.	.	.	.	.	.	.	.	.	.	.	.	.
=41	=41	=41	=41	=41	=41	=41	=41	=41	=41	=41	=41	=41	=41
*>Letter>C	*>Letter>C	*>Letter>C	*>Letter>C	*>Letter>C	*>Letter>C	*>Letter>C	*>Letter>C	*>Letter>C	*>Letter>C	*>Letter>C	*>Letter>C	*>Letter>C	*>Letter>C
*>Label>Chorus	*>Label>Chorus	*>Label>Chorus	*>Label>Chorus	*>Label>Chorus	*>Label>Chorus	*>Label>Chorus	*>Label>Chorus	*>Label>Chorus	*>Label>Chorus	*>Label>Chorus	*>Label>Chorus	*>Label>Chorus	*>Label>Chorus
1r	.	1f#	I	1d	I	1r	.	1DM	newline	voice	.	137.309	D:maj
=42	=42	=42	=42	=42	=42	=42	=42	=42	=42	=42	=42	=42	=42
4r	.	4g	_	4c	_	1r	.	1CM	.	voice	.	140.743	C:maj6(9)
8r	.	4r	.	4r	.	.	.	.	.	.	.	.	.
16c	will	.	.	.	.	.	.	.	.	.	.	.	.
16e	be	.	.	.	.	.	.	.	.	.	.	.	.
8e	watch-	2r	.	2r	.	.	.	.	.	.	.	.	.
16e	-ing	.	.	.	.	.	.	.	.	.	f	.	.
8.d	o-	.	.	.	.	.	.	.	.	.	.	.	.
16c	-ver	.	.	.	.	.	.	.	.	.	.	.	.
[16d	you	.	.	.	.	.	.	.	.	.	G	.	.
=43	=43	=43	=43	=43	=43	=43	=43	=43	=43	=43	=43	=43	=43
16d]	_	1f#	I	1d	I	1r	.	1DM	.	voice	.	144.177	D:maj
16c	_	.	.	.	.	.	.	.	.	.	.	.	.
8B	_	.	.	.	.	.	.	.	.	.	.	.	.
4r	.	.	.	.	.	.	.	.	.	.	.	.	.
2r	.	.	.	.	.	.	.	.	.	.	.	.	.
=44	=44	=44	=44	=44	=44	=44	=44	=44	=44	=44	=44	=44	=44
4r	.	4g	_	4c	_	1r	.	1CM	.	voice	.	147.611	C:maj6(9)
16r	.	4r	.	4r	.	.	.	.	.	.	.	.	.
16~G	am	.	.	.	.	.	.	.	.	.	.	.	.
16e	gon-	.	.	.	.	.	.	.	.	.	.	.	.
16e	-na	.	.	.	.	.	.	.	.	.	.	.	.
8.e	help	2r	.	2r	.	.	.	.	.	.	.	.	.
16d	you	.	.	.	.	.	.	.	.	.	.	.	.
8d	see	.	.	.	.	.	.	.	.	.	F	.	.
16c	it	.	.	.	.	.	.	.	.	.	.	.	.
[16d	through	.	.	.	.	.	.	.	.	.	G	.	.
=45	=45	=45	=45	=45	=45	=45	=45	=45	=45	=45	=45	=45	=45
16d]	_	1f#	I	1d	I	1r	.	1DM	newline	voice	.	151.045	D:maj
16c	_	.	.	.	.	.	.	.	.	.	.	.	.
8B	_	.	.	.	.	.	.	.	.	.	.	.	.
4r	.	.	.	.	.	.	.	.	.	.	.	.	.
2r	.	.	.	.	.	.	.	.	.	.	.	.	.
=46	=46	=46	=46	=46	=46	=46	=46	=46	=46	=46	=46	=46	=46
4r	.	4g	_	4c	_	1r	.	1CM	.	voice	.	154.477	C:maj6(9)
8r	.	4r	.	4r	.	.	.	.	.	.	.	.	.
16c	Will	.	.	.	.	.	.	.	.	.	.	.	.
16e	pro-	.	.	.	.	.	.	.	.	.	.	.	.
8e	-tect	2r	.	2r	.	.	.	.	.	.	.	.	.
8e	you	.	.	.	.	.	.	.	.	.	.	.	.
8e	in	.	.	.	.	.	.	.	.	.	.	.	.
16f#	the	.	.	.	.	.	.	.	.	.	.	.	.
[16d	night	.	.	.	.	.	.	.	.	.	A	.	.
=47	=47	=47	=47	=47	=47	=47	=47	=47	=47	=47	=47	=47	=47
16d]	_	1f#	I	1d	I	1r	.	1DM	.	voice	.	157.91	D:maj
16c	_	.	.	.	.	.	.	.	.	.	.	.	.
4B	_	.	.	.	.	.	.	.	.	.	.	.	.
8r	.	.	.	.	.	.	.	.	.	.	.	.	.
2r	.	.	.	.	.	.	.	.	.	.	.	.	.
=48	=48	=48	=48	=48	=48	=48	=48	=48	=48	=48	=48	=48	=48
4r	.	4g	_	4c	_	1r	.	1CM	.	voice	.	161.342	C:maj6(9)
8.r	.	4r	.	4r	.	.	.	.	.	.	.	.	.
16~D	am	.	.	.	.	.	.	.	.	.	.	.	.
16c	smi-	2r	.	2r	.	.	.	.	.	.	.	.	.
16B	_	.	.	.	.	.	.	.	.	.	.	.	.
8B	-ling	.	.	.	.	.	.	.	.	.	.	.	.
8G	next	.	.	.	.	.	.	.	.	.	.	.	.
16E	to	.	.	.	.	.	.	.	.	.	.	.	.
[16G	you	.	.	.	.	.	.	.	.	.	G	.	.
=49	=49	=49	=49	=49	=49	=49	=49	=49	=49	=49	=49	=49	=49
4G]	_	1r	.	1r	.	1r	.	1CM	.	voice	.	164.774	C:maj6(9)
8.r	.	.	.	.	.	.	.	.	.	.	.	.	.
16~E	in	.	.	.	.	.	.	.	.	.	.	.	.
8A	si-	.	.	.	.	.	.	.	.	.	.	.	.
16A	-lent	.	.	.	.	.	.	.	.	.	.	.	.
16G	lu-	.	.	.	.	.	.	.	.	.	.	.	.
16A	-ci-	.	.	.	.	.	.	.	.	.	.	.	.
16G	-di-	.	.	.	.	.	.	.	.	.	.	.	.
16A	-ty	.	.	.	.	.	.	.	.	.	F	.	.
[16G	_	.	.	.	.	.	.	.	.	.	.	.	.
=50	=50	=50	=50	=50	=50	=50	=50	=50	=50	=50	=50	=50	=50
*>Letter>A2	*>Letter>A2	*>Letter>A2	*>Letter>A2	*>Letter>A2	*>Letter>A2	*>Letter>A2	*>Letter>A2	*>Letter>A2	*>Letter>A2	*>Letter>A2	*>Letter>A2	*>Letter>A2	*>Letter>A2
*>Label>Trans	*>Label>Trans	*>Label>Trans	*>Label>Trans	*>Label>Trans	*>Label>Trans	*>Label>Trans	*>Label>Trans	*>Label>Trans	*>Label>Trans	*>Label>Trans	*>Label>Trans	*>Label>Trans	*>Label>Trans
4G]	_	1r	.	1r	.	1r	.	2GM	newline	guitar	.	168.207	G:maj
4r	.	.	.	.	.	.	.	.	.	.	.	.	.
2r	.	.	.	.	.	.	.	2GM	.	guitar	.	169.91	G:maj(9)
=51	=51	=51	=51	=51	=51	=51	=51	=51	=51	=51	=51	=51	=51
1r	.	1r	.	1r	.	1r	.	2GM	.	guitar	.	171.614	G:maj
.	.	.	.	.	.	.	.	2GM	.	guitar	.	173.318	G:maj(9)
=52	=52	=52	=52	=52	=52	=52	=52	=52	=52	=52	=52	=52	=52
*>Letter>D	*>Letter>D	*>Letter>D	*>Letter>D	*>Letter>D	*>Letter>D	*>Letter>D	*>Letter>D	*>Letter>D	*>Letter>D	*>Letter>D	*>Letter>D	*>Letter>D	*>Letter>D
*>Label>Bridge	*>Label>Bridge	*>Label>Bridge	*>Label>Bridge	*>Label>Bridge	*>Label>Bridge	*>Label>Bridge	*>Label>Bridge	*>Label>Bridge	*>Label>Bridge	*>Label>Bridge	*>Label>Bridge	*>Label>Bridge	*>Label>Bridge
*C:	*	*C:	*	*C:	*	*C:	*	*C:	*C:	*C:	*	*C:	*C:
1r	.	1r	.	1r	.	1r	.	1E-M	newline	guitar	.	175.022	E-:maj
=53	=53	=53	=53	=53	=53	=53	=53	=53	=53	=53	=53	=53	=53
1r	.	1r	.	1r	.	1r	.	1E-M	.	guitar	.	178.433	E-:maj
=54	=54	=54	=54	=54	=54	=54	=54	=54	=54	=54	=54	=54	=54
1r	.	1r	.	1r	.	1r	.	2CM	.	guitar	.	181.843	C:sus2
.	.	.	.	.	.	.	.	2CM	.	guitar	.	183.549	C:maj
=55	=55	=55	=55	=55	=55	=55	=55	=55	=55	=55	=55	=55	=55
1r	.	1r	.	1r	.	1r	.	2CM	.	guitar	.	185.254	C:sus2
.	.	.	.	.	.	.	.	2CM	.	guitar	.	186.959	C:maj
=56	=56	=56	=56	=56	=56	=56	=56	=56	=56	=56	=56	=56	=56
1r	.	1r	.	1r	.	1r	.	1E-M	newline	guitar	.	188.665	E-:maj
=57	=57	=57	=57	=57	=57	=57	=57	=57	=57	=57	=57	=57	=57
1r	.	1r	.	1r	.	1r	.	1E-M	.	guitar	.	191.415	E-:maj
=58	=58	=58	=58	=58	=58	=58	=58	=58	=58	=58	=58	=58	=58
1r	.	1r	.	1r	.	1r	.	2CM	.	guitar	.	194.165	C:sus2
.	.	.	.	.	.	.	.	2CM	.	guitar	.	195.54	C:maj
=59	=59	=59	=59	=59	=59	=59	=59	=59	=59	=59	=59	=59	=59
1r	.	1r	.	1r	.	1r	.	1B-M	.	guitar	.	196.916	B-:maj
=60	=60	=60	=60	=60	=60	=60	=60	=60	=60	=60	=60	=60	=60
1r	.	1r	.	1r	.	1r	.	1A-M	.	guitar	.	199.666	A-:maj
=61	=61	=61	=61	=61	=61	=61	=61	=61	=61	=61	=61	=61	=61
1r	.	1r	.	1r	.	1r	.	1Cm	newline	strings	.	202.416	C:min(9)/5
=62	=62	=62	=62	=62	=62	=62	=62	=62	=62	=62	=62	=62	=62
1r	.	1r	.	1r	.	1r	.	2FM	.	strings	.	205.843	F:sus2(b7)
.	.	.	.	.	.	.	.	2FM	.	strings	.	207.556	F:maj
=63	=63	=63	=63	=63	=63	=63	=63	=63	=63	=63	=63	=63	=63
1r	.	1r	.	1r	.	1r	.	2E-M	.	strings	.	209.269	E-:maj
.	.	.	.	.	.	.	.	2Cm	.	strings	.	210.982	C:min6/b3
=64	=64	=64	=64	=64	=64	=64	=64	=64	=64	=64	=64	=64	=64
1r	.	1r	.	1r	.	1r	.	2Dm	newline	strings	.	216.122	D:min
.	.	.	.	.	.	.	.	2Dm	.	strings	.	217.841	D:min(9)
=65	=65	=65	=65	=65	=65	=65	=65	=65	=65	=65	=65	=65	=65
1r	.	1r	.	1r	.	1r	.	2Cm	.	strings	.	219.559	C:sus4(9)
.	.	.	.	.	.	.	.	2Cm	.	strings	.	221.278	C:min
=66	=66	=66	=66	=66	=66	=66	=66	=66	=66	=66	=66	=66	=66
1r	.	1r	.	1r	.	1r	.	2B-MM	.	strings	.	222.996	B-:maj7
.	.	.	.	.	.	.	.	2B-M	.	strings	.	224.714	B-:maj(9)
=67	=67	=67	=67	=67	=67	=67	=67	=67	=67	=67	=67	=67	=67
1r	.	1r	.	1r	.	1r	.	1A-MM	.	strings	.	226.433	A-:maj7
=68	=68	=68	=68	=68	=68	=68	=68	=68	=68	=68	=68	=68	=68
1r	.	1r	.	1r	.	1r	.	1GM	newline	strings	.	229.87	G:maj
=69	=69	=69	=69	=69	=69	=69	=69	=69	=69	=69	=69	=69	=69
*>Letter>B	*>Letter>B	*>Letter>B	*>Letter>B	*>Letter>B	*>Letter>B	*>Letter>B	*>Letter>B	*>Letter>B	*>Letter>B	*>Letter>B	*>Letter>B	*>Letter>B	*>Letter>B
*>Label>Verse	*>Label>Verse	*>Label>Verse	*>Label>Verse	*>Label>Verse	*>Label>Verse	*>Label>Verse	*>Label>Verse	*>Label>Verse	*>Label>Verse	*>Label>Verse	*>Label>Verse	*>Label>Verse	*>Label>Verse
4.r	.	1r	.	1r	.	1r	.	2GM	newline	voice	.	232.362	G:maj
16B	If	.	.	.	.	.	.	.	.	.	.	.	.
16B	you	.	.	.	.	.	.	.	.	.	.	.	.
8d	o-	.	.	.	.	.	.	2GM	.	voice	.	234.077	G:maj(9)
16B	-pen	.	.	.	.	.	.	.	.	.	.	.	.
16B	your	.	.	.	.	.	.	.	.	.	.	.	.
8d	mind	.	.	.	.	.	.	.	.	.	.	.	.
16e	for	.	.	.	.	.	.	.	.	.	.	.	.
[16d	me	.	.	.	.	.	.	.	.	.	F	.	.
=70	=70	=70	=70	=70	=70	=70	=70	=70	=70	=70	=70	=70	=70
8d]	_	1r	.	1r	.	1r	.	2GM	.	voice	.	235.791	G:maj
8r	.	.	.	.	.	.	.	.	.	.	.	.	.
8.r	.	.	.	.	.	.	.	.	.	.	.	.	.
16~G	You	.	.	.	.	.	.	.	.	.	.	.	.
8d	won't	.	.	.	.	.	.	2GM	.	voice	.	237.505	G:maj(9)
16d	re-	.	.	.	.	.	.	.	.	.	.	.	.
8.d	-ly	.	.	.	.	.	.	.	.	.	.	.	.
8e	on	.	.	.	.	.	.	.	.	.	.	.	.
=71	=71	=71	=71	=71	=71	=71	=71	=71	=71	=71	=71	=71	=71
16B	o-	1r	.	1r	.	1r	.	2Emm	.	voice	.	239.22	E:min9
16B	-pen	.	.	.	.	.	.	.	.	.	.	.	.
[8B	eyes	.	.	.	.	.	.	.	.	.	.	.	.
8B]	_	.	.	.	.	.	.	.	.	.	.	.	.
16B	to	.	.	.	.	.	.	.	.	.	.	.	.
[16B	see	.	.	.	.	.	.	.	.	.	F	.	.
4B]	_	.	.	.	.	.	.	2Emm	.	voice	.	240.934	E:min7
4r	.	.	.	.	.	.	.	.	.	.	.	.	.
=72	=72	=72	=72	=72	=72	=72	=72	=72	=72	=72	=72	=72	=72
1r	.	1r	.	1r	.	1r	.	2Emm	.	voice	.	242.649	E:min9
.	.	.	.	.	.	.	.	2Emm	.	voice	.	244.363	E:min7
=73	=73	=73	=73	=73	=73	=73	=73	=73	=73	=73	=73	=73	=73
8.r	.	1r	.	1r	.	1r	.	2GM	newline	voice	.	246.078	G:maj
16BB	The	.	.	.	.	.	.	.	.	.	.	.	.
8d	walls	.	.	.	.	.	.	.	.	.	.	.	.
8B	you	.	.	.	.	.	.	.	.	.	.	.	.
8d	built	.	.	.	.	.	.	2GM	.	voice	.	247.794	G:maj(9)
16e	with-	.	.	.	.	.	.	.	.	.	.	.	.
16d	-in	.	.	.	.	.	.	.	.	.	h	.	.
16c	_	.	.	.	.	.	.	.	.	.	.	.	.
8.B	_	.	.	.	.	.	.	.	.	.	.	.	.
=74	=74	=74	=74	=74	=74	=74	=74	=74	=74	=74	=74	=74	=74
4r	.	1r	.	1r	.	1r	.	2GM	.	voice	.	249.511	G:maj
8r	.	.	.	.	.	.	.	.	.	.	.	.	.
8B	come	.	.	.	.	.	.	.	.	.	.	.	.
8g	tum-	.	.	.	.	.	.	2GM	.	voice	.	251.227	G:maj(9)
16f#	-bling	.	.	.	.	.	.	.	.	.	.	.	.
8.e	down	.	.	.	.	.	.	.	.	.	.	.	.
16f#	and	.	.	.	.	.	.	.	.	.	.	.	.
16f#	a	.	.	.	.	.	.	.	.	.	.	.	.
=75	=75	=75	=75	=75	=75	=75	=75	=75	=75	=75	=75	=75	=75
8g	new	1r	.	1r	.	1r	.	2Emm	.	voice	.	252.943	E:min9
8f#	world	.	.	.	.	.	.	.	.	.	.	.	.
8e	will	.	.	.	.	.	.	.	.	.	.	.	.
16f#	be-	.	.	.	.	.	.	.	.	.	.	.	.
[16e	-gin	.	.	.	.	.	.	.	.	.	h	.	.
4e]	_	.	.	.	.	.	.	2Emm	.	voice	.	254.66	E:min7
4r	.	.	.	.	.	.	.	.	.	.	.	.	.
=76	=76	=76	=76	=76	=76	=76	=76	=76	=76	=76	=76	=76	=76
1r	.	1r	.	1r	.	1r	.	2Emm	.	voice	.	256.376	E:min9
.	.	.	.	.	.	.	.	2Emm	.	voice	.	258.093	E:min7
=77	=77	=77	=77	=77	=77	=77	=77	=77	=77	=77	=77	=77	=77
4r	.	1r	.	1r	.	1r	.	2CM	newline	voice	.	259.809	C:maj
8e	Li-	.	.	.	.	.	.	.	.	.	.	.	.
8d	-ving	.	.	.	.	.	.	.	.	.	.	.	.
8e	twice	.	.	.	.	.	.	2CM	.	voice	.	261.518	C:maj(9)
16d	at	.	.	.	.	.	.	.	.	.	.	.	.
8.e	once	.	.	.	.	.	.	.	.	.	.	.	.
16f#	you	.	.	.	.	.	.	.	.	.	.	.	.
[16e	learn	.	.	.	.	.	.	.	.	.	.	.	.
=78	=78	=78	=78	=78	=78	=78	=78	=78	=78	=78	=78	=78	=78
8e]	_	1r	.	1r	.	1r	.	2CM	.	voice	.	263.226	C:maj
8r	.	.	.	.	.	.	.	.	.	.	.	.	.
8.r	.	.	.	.	.	.	.	.	.	.	.	.	.
16e	You're	.	.	.	.	.	.	.	.	.	.	.	.
8e	safe	.	.	.	.	.	.	2CM	.	voice	.	264.935	C:maj(9)
16d	from	.	.	.	.	.	.	.	.	.	.	.	.
16e	pain	.	.	.	.	.	.	.	.	.	D	.	.
8d	_	.	.	.	.	.	.	.	.	.	.	.	.
16d	in	.	.	.	.	.	.	.	.	.	.	.	.
16d	the	.	.	.	.	.	.	.	.	.	.	.	.
=79	=79	=79	=79	=79	=79	=79	=79	=79	=79	=79	=79	=79	=79
8e	dream	1r	.	1r	.	1r	.	2Amm	.	voice	.	266.644	A:min7
16e	do-	.	.	.	.	.	.	.	.	.	.	.	.
16e	-main	.	.	.	.	.	.	.	.	.	D	.	.
8d	_	.	.	.	.	.	.	.	.	.	.	.	.
16r	.	.	.	.	.	.	.	.	.	.	.	.	.
16G	A	.	.	.	.	.	.	.	.	.	.	.	.
8c	soul	.	.	.	.	.	.	2Amm	.	voice	.	268.353	A:min11
8c	set	.	.	.	.	.	.	.	.	.	.	.	.
16c	free	.	.	.	.	.	.	.	.	.	.	.	.
16d	to	.	.	.	.	.	.	.	.	.	.	.	.
[8A	fly	.	.	.	.	.	.	.	.	.	A	.	.
=80	=80	=80	=80	=80	=80	=80	=80	=80	=80	=80	=80	=80	=80
4A]	_	1r	.	1r	.	1r	.	2Amm	.	voice	.	270.061	A:min7
4r	.	.	.	.	.	.	.	.	.	.	.	.	.
2r	.	.	.	.	.	.	.	2Amm	.	voice	.	271.77	A:min11
=81	=81	=81	=81	=81	=81	=81	=81	=81	=81	=81	=81	=81	=81
8.r	.	1r	.	1r	.	1r	.	2CM	newline	voice	.	273.479	C:maj
16~G	A	.	.	.	.	.	.	.	.	.	.	.	.
8e	round	.	.	.	.	.	.	.	.	.	.	.	.
8d	trip	.	.	.	.	.	.	.	.	.	.	.	.
8e	jour-	.	.	.	.	.	.	2CM	.	voice	.	275.203	C:maj(9)
16d	-ney	.	.	.	.	.	.	.	.	.	.	.	.
8.e	in	.	.	.	.	.	.	.	.	.	.	.	.
16f#	your	.	.	.	.	.	.	.	.	.	.	.	.
[16e	head	.	.	.	.	.	.	.	.	.	.	.	.
=82	=82	=82	=82	=82	=82	=82	=82	=82	=82	=82	=82	=82	=82
4e]	_	1r	.	1r	.	1r	.	2CM	.	voice	.	276.928	C:maj
4r	.	.	.	.	.	.	.	.	.	.	.	.	.
8g	Mas-	.	.	.	.	.	.	2CM	.	voice	.	278.652	C:maj(9)
16g	-ter	.	.	.	.	.	.	.	.	.	.	.	.
8.g	of	.	.	.	.	.	.	.	.	.	.	.	.
16g	i-	.	.	.	.	.	.	.	.	.	.	.	.
[16a	-llu-	.	.	.	.	.	.	.	.	.	.	.	.
=83	=83	=83	=83	=83	=83	=83	=83	=83	=83	=83	=83	=83	=83
8a]	_	1r	.	1r	.	1r	.	2Amm	.	voice	.	280.376	A:min7
8a	-sion	.	.	.	.	.	.	.	.	.	.	.	.
8.a	can	.	.	.	.	.	.	.	.	.	.	.	.
16d	you	.	.	.	.	.	.	.	.	.	.	.	.
8e	re-	.	.	.	.	.	.	2Amm	.	voice	.	282.101	A:min11
16f#	-a-	.	.	.	.	.	.	.	.	.	.	.	.
8.e	-lize	.	.	.	.	.	.	.	.	.	A	.	.
16r	.	.	.	.	.	.	.	.	.	.	.	.	.
16d	your	.	.	.	.	.	.	.	.	.	.	.	.
=84	=84	=84	=84	=84	=84	=84	=84	=84	=84	=84	=84	=84	=84
8e	dream's	1r	.	1r	.	1r	.	1Amm	.	voice	.	283.825	A:min7
16f#	a-	.	.	.	.	.	.	.	.	.	.	.	.
8e	-live	.	.	.	.	.	.	.	.	.	A	.	.
16r	.	.	.	.	.	.	.	.	.	.	.	.	.
16d	You	.	.	.	.	.	.	.	.	.	.	.	.
16d	can	.	.	.	.	.	.	.	.	.	.	.	.
16e	be	.	.	.	.	.	.	.	.	.	.	.	.
16d	_	.	.	.	.	.	.	.	.	.	.	.	.
16c	the	.	.	.	.	.	.	.	.	.	.	.	.
16c	guide	.	.	.	.	.	.	.	.	.	A	.	.
8B	_	.	.	.	.	.	.	.	.	.	.	.	.
8B	but	.	.	.	.	.	.	.	.	.	.	.	.
=85	=85	=85	=85	=85	=85	=85	=85	=85	=85	=85	=85	=85	=85
*>Letter>C	*>Letter>C	*>Letter>C	*>Letter>C	*>Letter>C	*>Letter>C	*>Letter>C	*>Letter>C	*>Letter>C	*>Letter>C	*>Letter>C	*>Letter>C	*>Letter>C	*>Letter>C
*>Label>Chorus	*>Label>Chorus	*>Label>Chorus	*>Label>Chorus	*>Label>Chorus	*>Label>Chorus	*>Label>Chorus	*>Label>Chorus	*>Label>Chorus	*>Label>Chorus	*>Label>Chorus	*>Label>Chorus	*>Label>Chorus	*>Label>Chorus
1r	.	1f#	I	1d	I	1r	.	1DM	newline	voice	.	287.274	D:maj
=86	=86	=86	=86	=86	=86	=86	=86	=86	=86	=86	=86	=86	=86
4r	.	4g	_	4c	_	1r	.	1CM	.	voice	.	290.686	C:maj6(9)
8r	.	4r	.	4r	.	.	.	.	.	.	.	.	.
16c	will	.	.	.	.	.	.	.	.	.	.	.	.
16e	be	.	.	.	.	.	.	.	.	.	.	.	.
8e	watch-	2r	.	2r	.	.	.	.	.	.	.	.	.
16e	-ing	.	.	.	.	.	.	.	.	.	.	.	.
8.d	o-	.	.	.	.	.	.	.	.	.	.	.	.
16c	-ver	.	.	.	.	.	.	.	.	.	.	.	.
[16d	you	.	.	.	.	.	.	.	.	.	G	.	.
=87	=87	=87	=87	=87	=87	=87	=87	=87	=87	=87	=87	=87	=87
16d]	_	1f#	I	1d	I	1r	.	1DM	.	voice	.	294.098	D:maj
16c	_	.	.	.	.	.	.	.	.	.	.	.	.
8B	_	.	.	.	.	.	.	.	.	.	.	.	.
4r	.	.	.	.	.	.	.	.	.	.	.	.	.
2r	.	.	.	.	.	.	.	.	.	.	.	.	.
=88	=88	=88	=88	=88	=88	=88	=88	=88	=88	=88	=88	=88	=88
4r	.	4g	_	4c	_	1r	.	1CM	.	voice	.	297.51	C:maj6(9)
16r	.	4r	.	4r	.	.	.	.	.	.	.	.	.
16~G	am	.	.	.	.	.	.	.	.	.	.	.	.
16e	gon-	.	.	.	.	.	.	.	.	.	.	.	.
16e	-na	.	.	.	.	.	.	.	.	.	.	.	.
8.e	help	2r	.	2r	.	.	.	.	.	.	.	.	.
16d	you	.	.	.	.	.	.	.	.	.	.	.	.
8d	see	.	.	.	.	.	.	.	.	.	.	.	.
16c	it	.	.	.	.	.	.	.	.	.	.	.	.
[16d	through	.	.	.	.	.	.	.	.	.	G	.	.
=89	=89	=89	=89	=89	=89	=89	=89	=89	=89	=89	=89	=89	=89
16d]	_	1f#	I	1d	I	1r	.	1DM	newline	voice	.	300.921	D:maj
16e	_	.	.	.	.	.	.	.	.	.	.	.	.
8f#	_	.	.	.	.	.	.	.	.	.	.	.	.
4r	.	.	.	.	.	.	.	.	.	.	.	.	.
2r	.	.	.	.	.	.	.	.	.	.	.	.	.
=90	=90	=90	=90	=90	=90	=90	=90	=90	=90	=90	=90	=90	=90
4r	.	4g	_	4c	_	1r	.	1CM	.	voice	.	304.694	C:maj6(9)
8r	.	4r	.	4r	.	.	.	.	.	.	.	.	.
16c	Will	.	.	.	.	.	.	.	.	.	.	.	.
16e	pro-	.	.	.	.	.	.	.	.	.	.	.	.
8e	-tect	2r	.	2r	.	.	.	.	.	.	.	.	.
8e	you	.	.	.	.	.	.	.	.	.	.	.	.
8e	in	.	.	.	.	.	.	.	.	.	.	.	.
16f#	the	.	.	.	.	.	.	.	.	.	.	.	.
[16d	night	.	.	.	.	.	.	.	.	.	F	.	.
=91	=91	=91	=91	=91	=91	=91	=91	=91	=91	=91	=91	=91	=91
16d]	_	1f#	I	1d	I	4r	.	1DM	.	voice	.	308.467	D:maj
16c	_	.	.	.	.	.	.	.	.	.	.	.	.
4B	_	.	.	.	.	.	.	.	.	.	.	.	.
.	.	.	.	.	.	2a	I	.	.	.	.	.	.
8r	.	.	.	.	.	.	.	.	.	.	.	.	.
2r	.	.	.	.	.	.	.	.	.	.	.	.	.
.	.	.	.	.	.	16a	I	.	.	.	.	.	.
.	.	.	.	.	.	16b	_	.	.	.	.	.	.
.	.	.	.	.	.	16a	_	.	.	.	.	.	.
.	.	.	.	.	.	[16g	_	.	.	.	.	.	.
=92	=92	=92	=92	=92	=92	=92	=92	=92	=92	=92	=92	=92	=92
4r	.	4g	_	4c	_	4g]	_	1CM	.	voice	.	312.24	C:maj6(9)
8.r	.	4r	.	4r	.	4r	.	.	.	.	.	.	.
16~D	am	.	.	.	.	.	.	.	.	.	.	.	.
16c	smi-	2r	.	2r	.	2r	.	.	.	.	.	.	.
16B	_	.	.	.	.	.	.	.	.	.	.	.	.
8B	-ling	.	.	.	.	.	.	.	.	.	.	.	.
8G	next	.	.	.	.	.	.	.	.	.	.	.	.
16E	to	.	.	.	.	.	.	.	.	.	.	.	.
[16G	you	.	.	.	.	.	.	.	.	.	G	.	.
=93	=93	=93	=93	=93	=93	=93	=93	=93	=93	=93	=93	=93	=93
2G]	_	1r	.	1r	.	1r	.	1CM	.	voice	.	316.012	C:maj6(9)
2r	.	.	.	.	.	.	.	.	.	.	.	.	.
=94	=94	=94	=94	=94	=94	=94	=94	=94	=94	=94	=94	=94	=94
*>Letter>A	*>Letter>A	*>Letter>A	*>Letter>A	*>Letter>A	*>Letter>A	*>Letter>A	*>Letter>A	*>Letter>A	*>Letter>A	*>Letter>A	*>Letter>A	*>Letter>A	*>Letter>A
*>Label>Outro	*>Label>Outro	*>Label>Outro	*>Label>Outro	*>Label>Outro	*>Label>Outro	*>Label>Outro	*>Label>Outro	*>Label>Outro	*>Label>Outro	*>Label>Outro	*>Label>Outro	*>Label>Outro	*>Label>Outro
1r	.	1r	.	1r	.	1r	.	2GM	newline	guitar	.	319.785	G:maj
.	.	.	.	.	.	.	.	2GM	.	guitar	.	321.504	G:maj(9)
=95	=95	=95	=95	=95	=95	=95	=95	=95	=95	=95	=95	=95	=95
1r	.	1r	.	1r	.	1r	.	2GM	.	guitar	.	323.223	G:maj
.	.	.	.	.	.	.	.	2GM	.	guitar	.	324.941	G:maj(9)
=96	=96	=96	=96	=96	=96	=96	=96	=96	=96	=96	=96	=96	=96
1r	.	1r	.	1r	.	1r	.	2GM	.	guitar	.	326.66	G:maj
.	.	.	.	.	.	.	.	2GM	.	guitar	.	328.379	G:maj(9)
=97	=97	=97	=97	=97	=97	=97	=97	=97	=97	=97	=97	=97	=97
1r	.	1r	.	1r	.	1r	.	2GM	.	guitar	.	330.098	G:maj
.	.	.	.	.	.	.	.	2GM	.	guitar	.	331.817	G:maj(9)
=98	=98	=98	=98	=98	=98	=98	=98	=98	=98	=98	=98	=98	=98
1r	.	1r	.	1r	.	1r	.	2GM	newline	guitar	.	333.535	G:maj
.	.	.	.	.	.	.	.	2GM	.	guitar	.	335.238	G:maj(9)
=99	=99	=99	=99	=99	=99	=99	=99	=99	=99	=99	=99	=99	=99
1r	.	1r	.	1r	.	1r	.	1GM	.	guitar	.	336.94	G:maj
r;	.	r;	.	r;	.	r;	.	1r;	.	r	.	345.025	N.C.
r;	.	r;	.	r;	.	r;	.	1r;	.	r	.	347.82	N.C.
*-	*-	*-	*-	*-	*-	*-	*-	*-	*-	*-	*-	*-	*-
!!!BillboardChartDate: 1991/06/08, 1991/05/11
!!!BillboardPeak: 9, 9
!!!BillboardWeeksOnChart: 17, 17
!!!COC: Queensryche
!!!EMD: Algorithm for some reason called this G minor; as a result labelled some G5 as Gm which are in fact GM. Corrected the interpretation to G major, and 5 chord qualities. - Nat Condit-Schultz, 2017-01-25
!!!EMD: There was an extra measure in the bridge section.
!!!ENC: Nathaniel Condit-Schultz
!!!EST: Awating manual error checking and editing.
!!!OTL: Silent Lucidity
!!!RDF**chordsym: original McGill chord annotation + (implied pitch class set, with bass pitch in first position)
!!!RDF**harmony: **recip + pitch class of root + harmonic quality
!!!RDF**leadinstrument: original McGill primary instrumentation annotation
!!!RDF**phrase: newline = linebreak in original McGill transcription
!!!RDF**timestamp: McGill audio timestamp in seconds
!!!RDT: 2017/01/12/
!!!SampleActualRank: 12, 11
!!!SampleID#: 670, 685
!!!SampleTargetRank: 10, 10
